src/img/projects/react.svg

<?xml version="1.0" encoding="UTF-8"?>
<svg width="90px" height="90px" viewBox="0 0 90 90" version="1.1" xmlns="http://www.w3.org/2000/svg" xmlns:xlink="http://www.w3.org/1999/xlink">
    <!-- Generator: Sketch 41.2 (35397) - http://www.bohemiancoding.com/sketch -->
    <title>community/card/logo/react</title>
    <desc>Created with Sketch.</desc>
    <defs></defs>
    <g id="Symbols" stroke="none" stroke-width="1" fill="none" fill-rule="evenodd">
        <g id="community/card/logo/react" stroke="#FFFFFF" stroke-width="0.8" fill="#FFFFFF">
            <path d="M53.0400669,32.0236983 C53.0411734,32.0237848 53.0422803,32.0238737 53.0433875,32.0239651 C59.3222012,32.5421643 65.093707,33.660121 69.8228451,35.2560499 C70.2147361,35.3883003 70.4252164,35.8132008 70.292966,36.2050917 C70.1607157,36.5969827 69.7358152,36.807463 69.3439242,36.6752127 C67.891188,36.1849619 66.3345039,35.7404276 64.6906525,35.3455747 C63.714733,38.5602082 62.3911376,41.9318381 60.7635775,45.3460752 C60.7746176,45.364622 60.7849529,45.3837986 60.794532,45.4035872 C67.8861576,60.0536012 68.9809297,72.9187037 62.8655077,76.314864 C58.9863245,78.4692124 53.1196388,76.3322269 46.6896306,70.8230871 C46.3755432,70.5539815 46.3390783,70.0812102 46.6081839,69.7671229 C46.8772895,69.4530355 47.3500608,69.4165706 47.6641481,69.6856762 C53.6673444,74.8291295 58.9747212,76.7623825 62.1383177,75.0054433 C65.7730594,72.9869128 66.3011529,66.2727457 63.8674937,57.5313098 C60.4158726,58.3536827 56.6301129,58.9548257 52.6448577,59.3122756 C48.9850779,64.3554603 45.03142,68.6542904 41.1775522,71.8073568 C40.857436,72.0692619 40.3856145,72.0220725 40.1237094,71.7019563 C39.8618042,71.38184 39.9089937,70.9100185 40.2291099,70.6481134 C43.7133882,67.7974289 47.2996757,63.9642123 50.6688027,59.4683654 C48.4584047,59.619613 46.1950826,59.6970667 43.9007733,59.6970667 C42.8213041,59.6970667 41.7469231,59.6799425 40.6794679,59.6459114 C40.2660734,59.6327322 39.9416349,59.2869259 39.9548141,58.8735314 C39.9679934,58.4601369 40.3137997,58.1356984 40.7271942,58.1488776 C41.7787469,58.1824017 42.8372171,58.1992723 43.9007733,58.1992723 C50.9406964,58.1992723 57.6767922,57.4591124 63.4455662,56.0920693 C62.5690723,53.2429343 61.3934594,50.2031626 59.9233966,47.0587383 C58.9444832,48.9993684 57.8703415,50.9475464 56.7089207,52.8824692 C56.1114462,53.877727 55.4997731,54.8551257 54.8753942,55.8125683 C54.6494655,56.1590144 54.1854641,56.2567132 53.8390179,56.0307845 C53.4925718,55.8048559 53.394873,55.3408545 53.6208017,54.9944083 C54.2350094,54.0525627 54.8368243,53.0909164 55.4247321,52.1115946 C58.8952335,46.3297517 61.5693071,40.4349063 63.2265224,35.0120076 C60.4049669,34.4030816 57.3550377,33.9353031 54.1543593,33.6270134 C55.1040553,35.0259436 56.027667,36.4713982 56.9185617,37.9556998 C57.6682788,39.2046341 58.3829085,40.4612006 59.0603252,41.7207051 C59.2562406,42.0849658 59.1197697,42.5390782 58.755509,42.7349936 C58.3912484,42.9309089 57.9371359,42.7944381 57.7412206,42.4301774 C57.0749715,41.1914367 56.3719855,39.9553439 55.6343544,38.7265433 C52.2567468,33.09918 48.4046631,28.0450292 44.4594484,24.002142 C42.265746,26.1835947 40.0449877,28.7337942 37.87984,31.6002864 C40.0816761,31.4502645 42.3359562,31.3734494 44.6210289,31.3734494 C45.941169,31.3734494 47.2531642,31.3990939 48.5534891,31.4499896 C48.9667771,31.466166 49.2886997,31.8143157 49.2725233,32.2276037 C49.2563469,32.6408918 48.9081972,32.9628144 48.4949091,32.946638 C47.21411,32.8965066 45.9216451,32.8712438 44.6210289,32.8712438 C41.9180124,32.8712438 39.2598654,32.9803361 36.6841061,33.1921218 C36.4413359,33.4068077 36.0807307,33.4430771 35.7975185,33.26937 C31.9286637,33.6255714 28.2584222,34.2153127 24.9168595,35.0164108 C25.8530605,37.8216235 27.0542698,40.7528562 28.4939579,43.7247859 C29.3672653,42.0344963 30.3119062,40.3405491 31.3226398,38.6566705 C31.9455712,37.6187827 32.5848768,36.5991776 33.2388951,35.6000542 C33.4654207,35.253998 33.9295899,35.1570994 34.275646,35.383625 C34.6217021,35.6101506 34.7186008,36.0743198 34.4920752,36.4203759 C33.8487404,37.4031785 33.2197893,38.4062695 32.6068653,39.4274837 C29.1923506,45.1160529 26.5487018,50.9143025 24.8859643,56.2647937 C28.068449,57.0050541 31.6111121,57.5724384 35.4170991,57.9200114 C33.7655238,55.6803426 32.1744176,53.2936959 30.675677,50.7967026 C30.1173532,49.8667591 29.5783552,48.9322198 29.05964,47.9951529 C28.8593301,47.6332902 28.9902946,47.1775593 29.3521574,46.9772494 C29.7140202,46.7769396 30.1697511,46.9079041 30.3700609,47.2697669 C30.8802762,48.1914785 31.4105091,49.1108203 31.9598543,50.0258092 C35.6238184,56.130197 39.8445995,61.557335 44.1301561,65.7467722 C44.4259167,66.0358992 44.4312942,66.5100441 44.1421672,66.8058046 C43.8530402,67.1015651 43.3788952,67.1069427 43.0831347,66.8178157 C40.8892705,64.673157 38.7156263,62.2157833 36.623886,59.5165349 C36.5879761,59.5189519 36.5514498,59.5188067 36.5145059,59.5159295 C31.9142634,59.1576641 27.6500111,58.4906162 23.875917,57.57184 C23.8245563,57.5678201 23.7728352,57.5584086 23.721448,57.543228 C23.6932168,57.534888 23.6658473,57.5250316 23.639402,57.5137739 C13.5766534,55.0224194 7.06,50.7304228 7.06,45.7371213 C7.06,41.2084198 12.3494839,37.2434993 21.142538,34.6440643 C21.5391738,34.5268094 21.9557645,34.7532923 22.0730195,35.1499281 C22.1902744,35.5465639 21.9637915,35.9631547 21.5671557,36.0804096 C13.3504391,38.5094656 8.5577944,42.1019627 8.5577944,45.7371213 C8.5577944,49.7662496 14.3509083,53.5615117 23.4286771,55.9073178 C24.4799853,52.506151 25.9168019,48.934018 27.6877716,45.3253179 C27.6063802,45.2595365 27.5375467,45.175556 27.4880195,45.0756516 C24.8146173,39.6829645 22.897006,34.3881102 21.8876219,29.6663096 C21.8011588,29.2618435 22.0589511,28.8638667 22.4634172,28.7774036 C22.8678833,28.6909405 23.2658601,28.9487328 23.3523232,29.3531989 C23.6438132,30.7167608 24.0140363,32.1318612 24.4591104,33.5860151 C27.9689565,32.7381057 31.8295299,32.1202638 35.8977942,31.7563274 C45.5029117,18.6177503 56.4715047,11.3305146 62.5434895,14.7027688 C66.6013384,16.9561843 67.5324321,23.3511192 65.4846579,31.9684338 C65.389034,32.3708326 64.9853068,32.6195227 64.5829081,32.5238987 C64.1805093,32.4282748 63.9318192,32.0245476 64.0274432,31.6221489 C65.936391,23.5890345 65.0986008,17.8349259 61.816301,16.0121904 C58.226196,14.0183207 52.0622005,16.8018212 45.5351247,22.9598688 C48.1135583,25.6025924 50.6484556,28.6623567 53.0400669,32.0236983 Z M51.7453014,45.8281953 C51.7453014,41.8797903 48.4207549,38.6884325 44.3310075,38.6884325 C40.2412601,38.6884325 36.9167136,41.8797903 36.9167136,45.8281953 C36.9167136,49.7766003 40.2412601,52.9679581 44.3310075,52.9679581 C48.4207549,52.9679581 51.7453014,49.7766003 51.7453014,45.8281953 Z M77.6137828,40.4804987 C79.5698255,42.0616344 80.5622056,43.7279728 80.5622056,45.3931046 C80.5622056,48.9200298 76.0501031,52.4132465 68.2391808,54.8417523 C67.8442254,54.9645485 67.6235968,55.3842691 67.746393,55.7792246 C67.8691892,56.17418 68.2889098,56.3948086 68.6838652,56.2720124 C77.0604451,53.6676371 82.06,49.7970405 82.06,45.3931046 C82.06,43.2168229 80.8332753,41.1569885 78.5553549,39.3156682 C78.2336958,39.0556602 77.7621616,39.1056383 77.5021536,39.4272974 C77.2421457,39.7489565 77.2921238,40.2204907 77.6137828,40.4804987 Z M23.38648,21.0418893 C23.7480084,18.2170932 24.7989974,16.2898964 26.465714,15.3642036 C29.7396633,13.5460181 35.3034693,15.6831665 41.5370274,21.2041581 C41.8466508,21.478388 42.3199574,21.4496959 42.5941873,21.1400725 C42.8684172,20.8304492 42.8397252,20.3571425 42.5301018,20.0829126 C35.8689169,14.1831768 29.743838,11.8304344 25.7385022,14.0547949 C23.6008222,15.2420603 22.3176023,17.5950987 21.9008038,20.8517467 C21.8482973,21.2620049 22.1383124,21.6371497 22.5485706,21.6896561 C22.9588287,21.7421626 23.3339736,21.4521475 23.38648,21.0418893 Z M31.8756866,75.0766749 C29.47918,75.9058464 27.4768768,75.8946811 25.9655395,75.0554674 C22.6924592,73.2376945 21.8496916,67.510533 23.7394261,59.5095698 C23.8344988,59.1070405 23.585256,58.7036543 23.1827267,58.6085816 C22.7801974,58.5135088 22.3768112,58.7627516 22.2817384,59.1652809 C20.2541622,67.7498537 21.1911321,74.1171822 25.2383772,76.3649036 C27.166711,77.4356666 29.5992037,77.4492308 32.3654261,76.4921407 C32.7562962,76.3569028 32.963527,75.9304081 32.8282892,75.539538 C32.6930514,75.148668 32.2665567,74.9414371 31.8756866,75.0766749 Z M39.9547841,74.1156947 C39.9547841,72.4379293 38.5476708,71.0873357 36.8232766,71.0873357 C35.0988825,71.0873357 33.6917692,72.4379293 33.6917692,74.1156947 C33.6917692,75.793618 35.0988445,77.144249 36.8232766,77.144249 C38.5477088,77.144249 39.9547841,75.793618 39.9547841,74.1156947 Z M76.7428207,37.828923 C76.7428207,36.1511576 75.3357074,34.8005641 73.6113132,34.8005641 C71.886919,34.8005641 70.4798057,36.1511576 70.4798057,37.828923 C70.4798057,39.5068464 71.886881,40.8574773 73.6113132,40.8574773 C75.3357454,40.8574773 76.7428207,39.5068464 76.7428207,37.828923 Z M25.0963701,24.8486816 C25.0963701,23.1709162 23.6892568,21.8203226 21.9648626,21.8203226 C20.2404685,21.8203226 18.8333552,23.1709162 18.8333552,24.8486816 C18.8333552,26.5266049 20.2404305,27.8772359 21.9648626,27.8772359 C23.6892948,27.8772359 25.0963701,26.5266049 25.0963701,24.8486816 Z M21.9648626,26.75389 C20.8507809,26.75389 19.956701,25.8956758 19.956701,24.8486816 C19.956701,23.8018596 20.8508059,22.9436684 21.9648626,22.9436684 C23.0789194,22.9436684 23.9730243,23.8018596 23.9730243,24.8486816 C23.9730243,25.8956758 23.0789443,26.75389 21.9648626,26.75389 Z M73.6113132,39.7341315 C72.4972315,39.7341315 71.6031515,38.8759173 71.6031515,37.828923 C71.6031515,36.7821011 72.4972564,35.9239099 73.6113132,35.9239099 C74.72537,35.9239099 75.6194749,36.7821011 75.6194749,37.828923 C75.6194749,38.8759173 74.7253949,39.7341315 73.6113132,39.7341315 Z M36.8232766,76.0209032 C35.7091949,76.0209032 34.815115,75.1626889 34.815115,74.1156947 C34.815115,73.0688727 35.7092198,72.2106815 36.8232766,72.2106815 C37.9373334,72.2106815 38.8314383,73.0688727 38.8314383,74.1156947 C38.8314383,75.1626889 37.9373583,76.0209032 36.8232766,76.0209032 Z M50.6219556,45.8281953 C50.6219556,49.1456855 47.8103913,51.8446123 44.3310075,51.8446123 C40.8516237,51.8446123 38.0400595,49.1456855 38.0400595,45.8281953 C38.0400595,42.5107051 40.8516237,39.8117783 44.3310075,39.8117783 C47.8103913,39.8117783 50.6219556,42.5107051 50.6219556,45.8281953 Z M42.742206,45.6048551 C42.742206,44.663057 43.5507414,43.8868709 44.5631434,43.8868709 C44.9767479,43.8868709 45.3120406,43.5515783 45.3120406,43.1379737 C45.3120406,42.7243692 44.9767479,42.3890765 44.5631434,42.3890765 C42.7369058,42.3890765 41.2444116,43.8218564 41.2444116,45.6048551 C41.2444116,46.0184596 41.5797043,46.3537523 41.9933088,46.3537523 C42.4069133,46.3537523 42.742206,46.0184596 42.742206,45.6048551 Z" id="community/icon-react"></path>
        </g>
    </g>
</svg>

<svg width="90" height="90" viewBox="0 0 90 90" xmlns="http://www.w3.org/2000/svg"><title>community/card/logo/react</title><path d="M53.04 32.024h.003c6.28.518 12.05 1.636 16.78 3.232a.749.749 0 1 1-.48 1.42 54.122 54.122 0 0 0-4.652-1.33c-.976 3.214-2.3 6.586-3.927 10a.759.759 0 0 1 .03.058c7.092 14.65 8.187 27.515 2.072 30.91-3.88 2.155-9.746.018-16.176-5.49a.749.749 0 1 1 .974-1.138c6.003 5.143 11.31 7.076 14.474 5.32 3.635-2.02 4.163-8.733 1.73-17.475-3.452.823-7.238 1.424-11.223 1.781-3.66 5.043-7.614 9.342-11.467 12.495a.749.749 0 1 1-.949-1.159c3.484-2.85 7.07-6.684 10.44-11.18a99.285 99.285 0 0 1-9.99.178.749.749 0 1 1 .048-1.497c1.052.033 2.11.05 3.174.05 7.04 0 13.776-.74 19.545-2.107-.877-2.85-2.053-5.889-3.523-9.033a90.766 90.766 0 0 1-3.214 5.823 92.91 92.91 0 0 1-1.834 2.93.749.749 0 0 1-1.254-.818 91.411 91.411 0 0 0 1.804-2.882c3.47-5.782 6.144-11.677 7.802-17.1a79.223 79.223 0 0 0-9.073-1.385 92.08 92.08 0 0 1 4.906 8.094.749.749 0 0 1-1.319.71 90.391 90.391 0 0 0-2.107-3.704c-3.377-5.628-7.23-10.682-11.175-14.725-2.193 2.182-4.414 4.732-6.58 7.598a100.584 100.584 0 0 1 10.674-.15.749.749 0 1 1-.058 1.497 99.087 99.087 0 0 0-11.81.245.75.75 0 0 1-.887.077c-3.87.357-7.54.946-10.881 1.747.936 2.806 2.137 5.737 3.577 8.709a91.218 91.218 0 0 1 4.745-8.125.749.749 0 1 1 1.253.82 90.954 90.954 0 0 0-1.885 3.007c-3.415 5.69-6.058 11.487-7.721 16.838 3.182.74 6.725 1.307 10.531 1.655a92.08 92.08 0 0 1-6.357-9.925.749.749 0 1 1 1.31-.725c.51.921 1.04 1.84 1.59 2.756 3.664 6.104 7.885 11.531 12.17 15.72a.749.749 0 1 1-1.047 1.072c-2.194-2.145-4.367-4.602-6.46-7.301a.755.755 0 0 1-.108-.001c-4.6-.358-8.865-1.025-12.64-1.944a.752.752 0 0 1-.236-.058C13.577 55.022 7.06 50.73 7.06 45.737c0-4.529 5.29-8.494 14.083-11.093a.749.749 0 0 1 .424 1.436c-8.217 2.43-13.01 6.022-13.01 9.657 0 4.03 5.794 7.825 14.872 10.17 1.051-3.4 2.488-6.973 4.259-10.582a.746.746 0 0 1-.2-.25c-2.673-5.392-4.591-10.687-5.6-15.409a.749.749 0 0 1 1.464-.313 50.772 50.772 0 0 0 1.107 4.233c3.51-.848 7.37-1.466 11.439-1.83 9.605-13.138 20.574-20.425 26.645-17.053 4.058 2.253 4.99 8.648 2.942 17.265a.749.749 0 1 1-1.458-.346c1.91-8.033 1.072-13.787-2.21-15.61-3.59-1.994-9.755.79-16.282 6.948 2.579 2.643 5.113 5.702 7.505 9.064zm-1.295 13.804c0-3.948-3.324-7.14-7.414-7.14s-7.414 3.192-7.414 7.14c0 3.949 3.324 7.14 7.414 7.14s7.414-3.191 7.414-7.14zm25.869-5.348c1.956 1.582 2.948 3.248 2.948 4.913 0 3.527-4.512 7.02-12.323 9.449a.749.749 0 0 0 .445 1.43c8.376-2.604 13.376-6.475 13.376-10.879 0-2.176-1.227-4.236-3.505-6.077a.749.749 0 1 0-.941 1.164zM23.386 21.042c.362-2.825 1.413-4.752 3.08-5.678 3.274-1.818 8.837.32 15.071 5.84a.749.749 0 0 0 .993-1.121c-6.661-5.9-12.786-8.253-16.791-6.028-2.138 1.187-3.421 3.54-3.838 6.797a.749.749 0 1 0 1.485.19zm8.49 54.035c-2.397.829-4.4.818-5.91-.022-3.274-1.817-4.116-7.544-2.227-15.545a.749.749 0 0 0-1.457-.345c-2.028 8.585-1.09 14.952 2.956 17.2 1.929 1.07 4.361 1.084 7.127.127a.749.749 0 0 0-.49-1.415zm8.079-.961c0-1.678-1.407-3.029-3.132-3.029-1.724 0-3.131 1.35-3.131 3.029 0 1.678 1.407 3.028 3.131 3.028 1.725 0 3.132-1.35 3.132-3.028zm36.788-36.287c0-1.678-1.407-3.028-3.132-3.028-1.724 0-3.131 1.35-3.131 3.028s1.407 3.028 3.131 3.028c1.725 0 3.132-1.35 3.132-3.028zm-51.647-12.98c0-1.678-1.407-3.029-3.131-3.029-1.725 0-3.132 1.35-3.132 3.029 0 1.678 1.407 3.028 3.132 3.028 1.724 0 3.131-1.35 3.131-3.028zm-3.131 1.905c-1.114 0-2.008-.858-2.008-1.905 0-1.047.894-1.905 2.008-1.905 1.114 0 2.008.858 2.008 1.905 0 1.047-.894 1.905-2.008 1.905zm51.646 12.98c-1.114 0-2.008-.858-2.008-1.905 0-1.047.894-1.905 2.008-1.905 1.114 0 2.008.858 2.008 1.905 0 1.047-.894 1.905-2.008 1.905zM36.823 76.021c-1.114 0-2.008-.858-2.008-1.905 0-1.047.894-1.905 2.008-1.905 1.114 0 2.008.858 2.008 1.905 0 1.047-.894 1.905-2.008 1.905zm13.799-30.193c0 3.318-2.812 6.017-6.291 6.017-3.48 0-6.29-2.7-6.29-6.017s2.81-6.016 6.29-6.016 6.291 2.699 6.291 6.016zm-7.88-.223c0-.942.809-1.718 1.821-1.718a.749.749 0 1 0 0-1.498c-1.826 0-3.319 1.433-3.319 3.216a.749.749 0 0 0 1.498 0z" stroke="#FFF" stroke-width=".8" fill="#FFF" fill-rule="evenodd"/></svg>
